icon/mi/beer.svg

<?xml version="1.0" encoding="UTF-8"?>
<svg version="1.1" id="beer" xmlns="http://www.w3.org/2000/svg" viewBox="0 0 15 15" height="1em" width="1em">
  <path d="M12,5V2c0,0-1-1-4.5-1S3,2,3,2v3c0.0288,1.3915,0.3706,2.7586,1,4c0.6255,1.4348,0.6255,3.0652,0,4.5c0,0,0,1,3.5,1
	s3.5-1,3.5-1c-0.6255-1.4348-0.6255-3.0652,0-4.5C11.6294,7.7586,11.9712,6.3915,12,5z M7.5,13.5
	c-0.7966,0.035-1.5937-0.0596-2.36-0.28c0.203-0.7224,0.304-1.4696,0.3-2.22h4.12c-0.004,0.7504,0.097,1.4976,0.3,2.22
	C9.0937,13.4404,8.2966,13.535,7.5,13.5z M7.5,5C6.3136,5.0299,5.1306,4.8609,4,4.5v-2C5.131,2.1411,6.3137,1.9722,7.5,2
	C8.6863,1.9722,9.869,2.1411,11,2.5v2C9.8694,4.8609,8.6864,5.0299,7.5,5z"/>
</svg>

<svg xmlns="http://www.w3.org/2000/svg" width="15" height="15"><path d="M12 5V2s-1-1-4.5-1S3 2 3 2v3a9.27 9.27 0 0 0 1 4 5.63 5.63 0 0 1 0 4.5s0 1 3.5 1 3.5-1 3.5-1A5.63 5.63 0 0 1 11 9a9.27 9.27 0 0 0 1-4zm-4.5 8.5a7.368 7.368 0 0 1-2.36-.28c.203-.722.304-1.47.3-2.22h4.12c-.004.75.097 1.498.3 2.22a7.368 7.368 0 0 1-2.36.28zm0-8.5c-1.186.03-2.37-.14-3.5-.5v-2A10.74 10.74 0 0 1 7.5 2a10.74 10.74 0 0 1 3.5.5v2c-1.13.36-2.314.53-3.5.5z"/></svg>
